X:206
T:Pomander Jig, The 
C:Joe Buchanan's Scottish Tome - Page 281.2
I:281 2
C:Ian Cameron
R:Jig
Z:Carl Allison
L:1/8
M:6/8
K:F
c |"F" ABc F2 A |"F" c2 A "D7"dcc |"Gm" cBB "C7"efg |"F" (f<a)c "C7"cBG |
"F"ABc F2 A |"F" c2 A "D7"dcc | "Gm"cBB "C7"efg |"F" f3 f2 :|
e | "Dm"d2 d "G7"def |"C" ecc "F7"cde |"Bb" d2 B "C7"Bcd |"F" (c<f)A "Dm"AGF |
"F"ABc F2 A |"F" c2 A "D7"dcc |"Gm" cBB "C7"efg |"F" f3 f2 :|

